build/img/icons/youtube.svg

<svg width="32" height="24" viewBox="0 0 32 24" fill="none" xmlns="http://www.w3.org/2000/svg">
<path d="M31.3262 4.27127C31.1404 3.60701 30.7862 3.00198 30.2979 2.51476C29.8097 2.02755 29.2039 1.67466 28.5392 1.49027C26.0442 0.823274 16.0142 0.823274 16.0142 0.823274C16.0142 0.823274 6.00322 0.807274 3.48222 1.49027C2.81862 1.67547 2.21402 2.02873 1.72685 2.5159C1.23968 3.00307 0.886424 3.60767 0.701224 4.27127C0.227424 6.82549 -0.00593012 9.4185 0.00422383 12.0163C-0.00039926 14.6016 0.232918 17.1818 0.701224 19.7243C0.887023 20.3882 1.24038 20.9933 1.72738 21.4813C2.21438 21.9694 2.81867 22.324 3.48222 22.5113C5.97722 23.1783 16.0142 23.1783 16.0142 23.1783C16.0142 23.1783 26.0192 23.1783 28.5392 22.5113C29.2038 22.3249 29.8093 21.9706 30.2974 21.4825C30.7855 20.9944 31.1398 20.3889 31.3262 19.7243C31.7852 17.1833 32.0092 14.5993 31.9932 12.0163C32.0092 9.41628 31.7902 6.82827 31.3262 4.27127ZM12.8102 16.8033V7.20827L21.1592 12.0163L12.8102 16.8033Z" fill="white"/>
</svg>

<svg width="32" height="24" fill="none" xmlns="http://www.w3.org/2000/svg">
    <path d="M31.326 4.271a4.006 4.006 0 0 0-2.787-2.78C26.044.822 16.014.822 16.014.822S6.004.807 3.482 1.49a4.005 4.005 0 0 0-2.78 2.781 41.574 41.574 0 0 0-.698 7.745 42.136 42.136 0 0 0 .697 7.708 4.022 4.022 0 0 0 2.781 2.787c2.495.667 12.532.667 12.532.667s10.005 0 12.525-.667a4.023 4.023 0 0 0 2.787-2.787c.46-2.54.683-5.125.667-7.708.016-2.6-.203-5.188-.667-7.745zM12.81 16.803V7.208l8.35 4.808-8.35 4.787z" fill="#fff"/>
</svg>
